source/img/svg/clock.svg

<svg width="80" height="80" viewBox="0 0 80 80" fill="none" xmlns="http://www.w3.org/2000/svg">
<rect width="80" height="80" fill="#68B738"/>
<path d="M32.5308 24C31.4692 24 31.4692 25.5927 32.5308 25.5927H39.1656V27.2066C32.3716 27.6419 27 33.471 27 40.5849C27 44.6196 28.741 48.2615 31.4905 50.7142C31.9682 51.1389 32.0319 51.8927 31.5966 52.3599L30.0679 53.9207C29.3248 54.6109 30.4289 55.6833 31.0977 54.9294L33.0934 52.8802C33.4437 52.5404 33.9639 52.4555 34.3992 52.6678C36.1155 53.5168 38.0026 53.9638 39.9173 53.9748C41.832 53.9859 43.7241 53.5607 45.4501 52.7315C45.8748 52.5192 46.4055 52.6041 46.7453 52.9439L48.6773 54.9294C49.3567 55.5665 50.3334 54.6109 49.7177 53.9207L48.2739 52.4343C47.8281 51.9777 47.8918 51.2238 48.3801 50.7885C49.8287 49.5116 50.9874 47.9396 51.7784 46.1778C52.5693 44.4161 52.9743 42.5055 52.9661 40.5743C52.9661 33.4604 47.5627 27.6206 40.758 27.2066V25.5927H47.3928C48.4544 25.5927 48.4544 24 47.3928 24H32.5308ZM28.4331 40.5743C28.4331 34.0019 33.603 28.6824 39.983 28.6824C46.3525 28.6824 51.5223 34.0019 51.5223 40.5743C51.5223 47.1572 46.3525 52.4873 39.983 52.4873C33.6136 52.4873 28.4331 47.1572 28.4331 40.5743ZM39.1762 32.4305C39.1762 31.3262 40.8323 31.3262 40.8323 32.4305V41.1158C40.8323 41.341 40.7428 41.5571 40.5836 41.7164C40.4243 41.8757 40.2083 41.9652 39.983 41.9652C39.7709 41.9652 39.5673 41.8816 39.4163 41.7326C39.2653 41.5836 39.179 41.381 39.1762 41.1689V32.4305ZM34.2081 35.0637C34.515 35.0637 34.8093 34.9417 35.0263 34.7247C35.2433 34.5076 35.3652 34.2133 35.3652 33.9063C35.3652 33.5994 35.2433 33.305 35.0263 33.088C34.8093 32.8709 34.515 32.749 34.2081 32.749C33.9217 32.7765 33.6558 32.9098 33.4623 33.1228C33.2689 33.3358 33.1617 33.6132 33.1617 33.901C33.1617 34.1888 33.2689 34.4662 33.4623 34.6792C33.6558 34.8922 33.9217 35.0255 34.2081 35.053V35.0637ZM45.7474 35.0637C46.0543 35.0637 46.3486 34.9417 46.5656 34.7247C46.7826 34.5076 46.9045 34.2133 46.9045 33.9063C46.9045 33.5994 46.7826 33.305 46.5656 33.088C46.3486 32.8709 46.0543 32.749 45.7474 32.749C45.461 32.7765 45.1951 32.9098 45.0016 33.1228C44.8082 33.3358 44.701 33.6132 44.701 33.901C44.701 34.1888 44.8082 34.4662 45.0016 34.6792C45.1951 34.8922 45.461 35.0255 45.7474 35.053V35.0637ZM35.3652 47.7306C35.3652 49.2702 33.051 49.2702 33.051 47.7306C33.051 46.191 35.3652 46.191 35.3652 47.7306ZM39.983 51.192C40.1436 51.2074 40.3056 51.1891 40.4586 51.1382C40.6117 51.0874 40.7524 51.005 40.8718 50.8966C40.9912 50.7881 41.0866 50.6558 41.1519 50.5083C41.2171 50.3608 41.2509 50.2013 41.2509 50.04C41.2509 49.8786 41.2171 49.7191 41.1519 49.5716C41.0866 49.4241 40.9912 49.2918 40.8718 49.1833C40.7524 49.0749 40.6117 48.9926 40.4586 48.9417C40.3056 48.8908 40.1436 48.8725 39.983 48.8879C39.6966 48.9155 39.4308 49.0487 39.2373 49.2617C39.0438 49.4747 38.9366 49.7522 38.9366 50.04C38.9366 50.3277 39.0438 50.6052 39.2373 50.8182C39.4308 51.0312 39.6966 51.1644 39.983 51.192ZM31.9045 40.7441C31.9199 40.9047 31.9016 41.0668 31.8507 41.2198C31.7999 41.3729 31.7176 41.5137 31.6091 41.6331C31.5007 41.7525 31.3684 41.8479 31.2209 41.9132C31.0735 41.9785 30.9139 42.0122 30.7527 42.0122C30.5914 42.0122 30.4319 41.9785 30.2844 41.9132C30.1369 41.8479 30.0047 41.7525 29.8962 41.6331C29.7878 41.5137 29.7055 41.3729 29.6546 41.2198C29.6037 41.0668 29.5854 40.9047 29.6009 40.7441C29.6284 40.4577 29.7616 40.1918 29.9746 39.9983C30.1875 39.8047 30.4649 39.6975 30.7527 39.6975C31.0404 39.6975 31.3178 39.8047 31.5307 39.9983C31.7437 40.1918 31.8769 40.4577 31.9045 40.7441ZM49.2081 41.9015C49.3686 41.9169 49.5307 41.8986 49.6837 41.8477C49.8368 41.7969 49.9775 41.7145 50.0969 41.6061C50.2163 41.4976 50.3116 41.3653 50.3769 41.2178C50.4422 41.0703 50.4759 40.9108 50.4759 40.7495C50.4759 40.5881 50.4422 40.4286 50.3769 40.2811C50.3116 40.1336 50.2163 40.0013 50.0969 39.8928C49.9775 39.7844 49.8368 39.702 49.6837 39.6512C49.5307 39.6003 49.3686 39.582 49.2081 39.5974C48.9217 39.625 48.6558 39.7582 48.4624 39.9712C48.2689 40.1842 48.1617 40.4617 48.1617 40.7495C48.1617 41.0372 48.2689 41.3147 48.4624 41.5277C48.6558 41.7407 48.9217 41.8739 49.2081 41.9015ZM46.9045 47.7412C46.9045 49.2702 44.5903 49.2702 44.5903 47.7306C44.5903 46.191 46.9045 46.191 46.9045 47.7306V47.7412Z" fill="white"/>
</svg>

<svg viewBox="0 0 80 80" fill="none" xmlns="http://www.w3.org/2000/svg">
    <path fill="#68B738" d="M0 0h80v80H0z"/>
    <path fill="#fff" d="M32.53 24c-1.06 0-1.06 1.6 0 1.6h6.64v1.6C32.37 27.65 27 33.48 27 40.59c0 4.04 1.74 7.68 4.5 10.13.47.43.53 1.18.1 1.65l-1.53 1.56c-.75.7.36 1.76 1.03 1l2-2.04c.34-.34.86-.42 1.3-.21a12.6 12.6 0 0 0 11.05.06c.42-.21.96-.13 1.3.21l1.93 1.99c.68.64 1.65-.32 1.04-1l-1.45-1.5c-.44-.45-.38-1.2.11-1.64a13.54 13.54 0 0 0 4.59-10.22c0-7.11-5.4-12.95-12.21-13.36v-1.62h6.63c1.06 0 1.06-1.59 0-1.59H32.53Zm-4.1 16.57c0-6.57 5.17-11.89 11.55-11.89 6.37 0 11.54 5.32 11.54 11.9s-5.17 11.9-11.54 11.9c-6.37 0-11.55-5.32-11.55-11.9Zm10.75-8.14c0-1.1 1.65-1.1 1.65 0v8.69a.85.85 0 0 1-.85.85.8.8 0 0 1-.8-.8v-8.74Zm-4.97 2.63a1.16 1.16 0 0 0 0-2.31 1.16 1.16 0 0 0 0 2.3v.01Zm11.54 0a1.16 1.16 0 0 0 0-2.31 1.16 1.16 0 0 0 0 2.3v.01ZM35.37 47.73c0 1.54-2.32 1.54-2.32 0s2.32-1.54 2.32 0Zm4.61 3.46a1.16 1.16 0 1 0 .22-2.3 1.16 1.16 0 0 0-.22 2.3ZM31.9 40.74a1.16 1.16 0 1 1-2.3.23 1.16 1.16 0 0 1 2.3-.23Zm17.3 1.16a1.16 1.16 0 1 0 .23-2.3 1.16 1.16 0 0 0-.22 2.3Zm-2.3 5.84c0 1.53-2.31 1.53-2.31 0 0-1.55 2.31-1.55 2.31 0Z"/>
</svg>
